X: 38829
T: Summer Hounds In Two
R: polka
M: 2/4
K: Amajor
|:a>g fe|fe e2|f>e ec|Bc ef/g/|
a>g fe|aA Az|f>g fe|c2 B2:|
|:A>c ec|ec ec|A>c ec|f>g fe|
a>g fe|aA Az|f>g fe|1 c2 B2:|2 f2 g2||

